images/preview_rotate.svg

<svg xmlns="http://www.w3.org/2000/svg" viewBox="0 0 24 24">
  <defs/>
  <path fill="#474747" fill-rule="nonzero" d="M16.5037716 2.51498438c3.2786497 1.55001562 5.6334801 4.725 5.9899503 8.48498442H24C23.4878654 4.83998438 18.3163419 0 12 0c-.2259417 0-.4418573.02001562-.667799.03501563l3.8309831 3.81496875 1.3405875-1.335zm-6.2811798-.76996876c-.58744845-.585-1.54144028-.585-2.12888875 0L1.70209428 8.10998438c-.58744847.585-.58744847 1.53501562 0 2.12001562L13.7724186 22.2500156c.5874485.585 1.5414403.585 2.1288888 0L22.2929162 15.885c.5874484-.585.5874484-1.5350156 0-2.1200156L10.2225918 1.74501562zM14.841829 21.1899844L2.76651512 9.17001563 9.15817097 2.805 21.2284953 14.8250156l-6.3866663 6.3649688zm-7.34560058.2950312c-3.27864968-1.5500156-5.63348017-4.725-5.9899503-8.4850312H0C.51213456 19.1600156 5.68365806 24 12 24c.2259417 0 .4418573-.0200156.667799-.0350156l-3.83098305-3.8149688-1.34058753 1.335z"/>
</svg>

<?xml version="1.0" encoding="UTF-8"?>
<svg width="24px" height="24px" viewBox="0 0 24 24" version="1.1" xmlns="http://www.w3.org/2000/svg" xmlns:xlink="http://www.w3.org/1999/xlink">
    <title>preview_rotate</title>
    <g id="preview_rotate" stroke="none" stroke-width="1" fill="none" fill-rule="evenodd">
        <g id="smartphone" fill="#474747" fill-rule="nonzero">
            <path d="M16.5037716,2.51498438 C19.7824213,4.065 22.1372517,7.23998438 22.4937219,10.9999688 L24,10.9999688 C23.4878654,4.83998438 18.3163419,0 12,0 C11.7740583,0 11.5581427,0.020015625 11.332201,0.035015625 L15.1631841,3.84998438 C15.1631841,3.84998438 16.5037716,2.51498438 16.5037716,2.51498438 Z M10.2225918,1.74501562 C9.63514335,1.16001562 8.68115152,1.16001562 8.09370305,1.74501562 L1.70209428,8.10998438 C1.11464581,8.69498438 1.11464581,9.645 1.70209428,10.23 L13.7724186,22.2500156 C14.3598671,22.8350156 15.3138589,22.8350156 15.9013074,22.2500156 L22.2929162,15.885 C22.8803646,15.3 22.8803646,14.3499844 22.2929162,13.7649844 L10.2225918,1.74501562 Z M14.841829,21.1899844 L2.76651512,9.17001563 L9.15817097,2.805 L21.2284953,14.8250156 L14.841829,21.1899844 Z M7.49622842,21.4850156 C4.21757874,19.935 1.86274825,16.7600156 1.50627812,12.9999844 L0,12.9999844 C0.512134561,19.1600156 5.68365806,24 12,24 C12.2259417,24 12.4418573,23.9799844 12.667799,23.9649844 L8.83681595,20.1500156 L7.49622842,21.4850156 L7.49622842,21.4850156 Z" id="Shape"></path>
        </g>
    </g>
</svg>
